SF_Symbols/fanblades.slash.svg

<?xml version="1.0" encoding="UTF-8"?>
<svg xmlns="http://www.w3.org/2000/svg" xmlns:xlink="http://www.w3.org/1999/xlink" width="24" height="24" viewBox="0 0 24 24" version="1.1">
<g id="surface1">
<path style=" stroke:none;fill-rule:nonzero;fill:rgb(100%,100%,100%);fill-opacity:1;" d="M 17.238281 2.019531 C 16.328125 2.019531 15.539062 2.300781 14.863281 2.863281 C 14.191406 3.425781 13.59375 4.246094 13.074219 5.324219 C 12.550781 6.390625 12.058594 7.695312 11.59375 9.230469 L 14.082031 11.71875 L 20.238281 11.71875 C 21.199219 11.71875 21.929688 11.472656 22.4375 10.980469 C 22.953125 10.480469 23.207031 9.765625 23.207031 8.832031 C 23.207031 8 23.039062 7.179688 22.699219 6.375 C 22.359375 5.5625 21.898438 4.828125 21.324219 4.175781 C 20.753906 3.523438 20.113281 3.003906 19.40625 2.613281 C 18.699219 2.21875 17.976562 2.019531 17.238281 2.019531 Z M 17.238281 3.613281 C 17.761719 3.613281 18.277344 3.769531 18.792969 4.082031 C 19.3125 4.390625 19.785156 4.796875 20.207031 5.300781 C 20.632812 5.808594 20.972656 6.371094 21.230469 6.988281 C 21.484375 7.609375 21.613281 8.222656 21.613281 8.832031 C 21.613281 9.320312 21.515625 9.65625 21.3125 9.84375 C 21.109375 10.03125 20.753906 10.125 20.238281 10.125 L 13.011719 10.125 C 13.441406 8.714844 13.855469 7.527344 14.25 6.5625 C 14.652344 5.597656 15.089844 4.863281 15.5625 4.363281 C 16.035156 3.863281 16.59375 3.613281 17.238281 3.613281 Z M 6.761719 22.925781 C 7.671875 22.925781 8.457031 22.644531 9.125 22.082031 C 9.796875 21.527344 10.394531 20.71875 10.917969 19.65625 C 11.445312 18.585938 11.941406 17.289062 12.40625 15.761719 L 9.875 13.230469 L 3.761719 13.230469 C 2.808594 13.230469 2.078125 13.480469 1.5625 13.980469 C 1.046875 14.472656 0.792969 15.183594 0.792969 16.113281 C 0.792969 16.949219 0.960938 17.769531 1.300781 18.582031 C 1.640625 19.390625 2.097656 20.117188 2.667969 20.769531 C 3.242188 21.429688 3.886719 21.953125 4.59375 22.34375 C 5.300781 22.734375 6.023438 22.925781 6.761719 22.925781 Z M 6.761719 21.332031 C 6.238281 21.332031 5.71875 21.179688 5.199219 20.875 C 4.683594 20.570312 4.214844 20.164062 3.792969 19.65625 C 3.367188 19.140625 3.027344 18.578125 2.769531 17.96875 C 2.515625 17.351562 2.386719 16.734375 2.386719 16.113281 C 2.386719 15.628906 2.484375 15.292969 2.6875 15.105469 C 2.890625 14.917969 3.246094 14.824219 3.761719 14.824219 L 10.988281 14.824219 C 10.566406 16.234375 10.152344 17.421875 9.75 18.394531 C 9.355469 19.359375 8.917969 20.089844 8.4375 20.582031 C 7.964844 21.082031 7.40625 21.332031 6.761719 21.332031 Z M 8.363281 1.269531 C 7.738281 1.269531 7.117188 1.375 6.5 1.582031 C 5.890625 1.785156 5.3125 2.058594 4.769531 2.40625 L 5.949219 3.574219 C 6.324219 3.351562 6.714844 3.175781 7.125 3.050781 C 7.542969 2.925781 7.953125 2.863281 8.363281 2.863281 C 8.851562 2.863281 9.1875 2.964844 9.375 3.167969 C 9.5625 3.367188 9.65625 3.730469 9.65625 4.25 L 9.65625 7.28125 L 11.25 8.875 L 11.25 4.25 C 11.25 3.292969 11 2.554688 10.5 2.042969 C 10.007812 1.527344 9.296875 1.269531 8.363281 1.269531 Z M 1.550781 7.238281 C 1.550781 8.238281 1.886719 9.097656 2.550781 9.8125 C 3.21875 10.527344 4.179688 11.167969 5.4375 11.730469 C 6.703125 12.285156 8.222656 12.828125 10 13.355469 L 7.207031 10.5625 C 5.867188 10.132812 4.855469 9.664062 4.167969 9.15625 C 3.484375 8.640625 3.144531 8.003906 3.144531 7.238281 C 3.144531 7.128906 3.15625 7.023438 3.175781 6.925781 C 3.199219 6.824219 3.230469 6.71875 3.269531 6.613281 L 2.011719 5.355469 C 1.863281 5.660156 1.75 5.972656 1.667969 6.292969 C 1.589844 6.605469 1.550781 6.921875 1.550781 7.238281 Z M 22.457031 17.71875 C 22.457031 16.71875 22.121094 15.859375 21.449219 15.144531 C 20.773438 14.429688 19.804688 13.796875 18.542969 13.238281 C 17.277344 12.675781 15.753906 12.132812 13.96875 11.605469 L 16.75 14.386719 C 18.109375 14.816406 19.136719 15.292969 19.824219 15.8125 C 20.515625 16.328125 20.863281 16.960938 20.863281 17.71875 C 20.863281 17.828125 20.855469 17.941406 20.832031 18.050781 C 20.8125 18.164062 20.78125 18.269531 20.738281 18.375 L 22 19.636719 C 22.144531 19.328125 22.257812 19.015625 22.332031 18.699219 C 22.417969 18.371094 22.457031 18.046875 22.457031 17.71875 Z M 15.644531 23.6875 C 16.269531 23.679688 16.890625 23.578125 17.5 23.386719 C 18.109375 23.191406 18.683594 22.921875 19.21875 22.574219 L 18.050781 21.394531 C 17.675781 21.617188 17.285156 21.789062 16.875 21.90625 C 16.464844 22.03125 16.054688 22.09375 15.644531 22.09375 C 15.160156 22.09375 14.824219 21.992188 14.636719 21.792969 C 14.449219 21.589844 14.355469 21.234375 14.355469 20.71875 L 14.355469 17.707031 L 12.761719 16.113281 L 12.761719 20.71875 C 12.761719 21.675781 13.007812 22.410156 13.5 22.917969 C 14 23.429688 14.714844 23.6875 15.644531 23.6875 Z M 20.980469 22.613281 C 21.140625 22.773438 21.328125 22.851562 21.550781 22.84375 C 21.773438 22.84375 21.960938 22.765625 22.113281 22.605469 C 22.273438 22.445312 22.355469 22.253906 22.355469 22.03125 C 22.355469 21.816406 22.273438 21.628906 22.113281 21.46875 L 3.011719 2.363281 C 2.859375 2.203125 2.667969 2.125 2.4375 2.125 C 2.214844 2.125 2.023438 2.203125 1.863281 2.363281 C 1.710938 2.515625 1.636719 2.707031 1.636719 2.9375 C 1.636719 3.160156 1.710938 3.347656 1.863281 3.5 Z M 20.980469 22.613281 "/>
</g>
</svg>

<svg xmlns="http://www.w3.org/2000/svg" width="24" height="24"><path style="stroke:none;fill-rule:nonzero;fill:#fff;fill-opacity:1" d="M17.238 2.02c-.91 0-1.699.28-2.375.843-.672.563-1.27 1.383-1.789 2.461-.523 1.067-1.015 2.371-1.48 3.906l2.488 2.489h6.156c.961 0 1.692-.246 2.2-.739.515-.5.769-1.214.769-2.148 0-.832-.168-1.652-.508-2.457a7.982 7.982 0 0 0-1.375-2.2 7.05 7.05 0 0 0-1.918-1.562c-.707-.394-1.43-.593-2.168-.593Zm0 1.593c.524 0 1.04.157 1.555.469.52.309.992.715 1.414 1.219.426.508.766 1.07 1.023 1.687.254.621.383 1.235.383 1.844 0 .488-.097.824-.3 1.012-.204.187-.56.281-1.075.281h-7.226c.43-1.41.843-2.598 1.238-3.563.402-.964.84-1.699 1.313-2.199.472-.5 1.03-.75 1.675-.75ZM6.762 22.926c.91 0 1.695-.281 2.363-.844.672-.555 1.27-1.363 1.793-2.426.527-1.07 1.023-2.367 1.488-3.894L9.875 13.23H3.762c-.953 0-1.684.25-2.2.75-.515.493-.769 1.204-.769 2.133 0 .836.168 1.657.508 2.469.34.809.797 1.535 1.367 2.188a7.068 7.068 0 0 0 1.926 1.574c.707.39 1.43.582 2.168.582Zm0-1.594c-.524 0-1.043-.152-1.563-.457a5.382 5.382 0 0 1-1.406-1.219A6.765 6.765 0 0 1 2.77 17.97a4.809 4.809 0 0 1-.383-1.856c0-.484.097-.82.3-1.008.204-.187.56-.28 1.075-.28h7.226c-.422 1.41-.836 2.597-1.238 3.57-.395.964-.832 1.695-1.313 2.187-.472.5-1.03.75-1.675.75ZM8.363 1.27c-.625 0-1.246.105-1.863.312a7.82 7.82 0 0 0-1.73.824l1.18 1.168a5.273 5.273 0 0 1 1.175-.523c.402-.121.82-.188 1.238-.188.489 0 .825.102 1.012.305.188.2.281.562.281 1.082v3.031l1.594 1.594V4.25c0-.957-.25-1.695-.75-2.207-.492-.516-1.203-.773-2.137-.773ZM1.551 7.238c0 1 .336 1.86 1 2.574.668.715 1.629 1.356 2.886 1.918 1.266.555 2.786 1.098 4.563 1.625l-2.793-2.793c-1.34-.43-2.352-.898-3.039-1.406-.684-.515-1.023-1.152-1.023-1.918 0-.11.011-.215.03-.312.024-.102.055-.207.095-.313L2.012 5.355c-.145.301-.262.614-.344.938a3.845 3.845 0 0 0-.117.945Zm20.906 10.48c0-1-.336-1.859-1.008-2.573-.676-.715-1.644-1.348-2.906-1.907-1.266-.562-2.79-1.105-4.574-1.633l2.781 2.782c1.36.43 2.387.906 3.074 1.425.692.516 1.04 1.149 1.04 1.907 0 .11-.009.222-.032.332-.02.113-.05.219-.094.324L22 19.637c.145-.309.258-.621.332-.938.086-.328.125-.652.125-.98Zm-6.812 5.97a6.38 6.38 0 0 0 1.855-.301 7.065 7.065 0 0 0 1.719-.813l-1.168-1.18c-.367.22-.762.391-1.176.512-.41.125-.82.188-1.23.188-.485 0-.82-.102-1.008-.301-.188-.203-.282-.559-.282-1.074v-3.012l-1.593-1.594v4.606c0 .957.246 1.691.738 2.199.5.512 1.215.77 2.145.77Zm5.335-1.075c.16.16.348.239.57.23.223 0 .41-.077.563-.238a.786.786 0 0 0 0-1.136L3.012 2.363a.747.747 0 0 0-.575-.238.776.776 0 0 0-.574.238.771.771 0 0 0-.226.575c0 .222.074.41.226.562Zm0 0"/></svg>
